X: 13878
T: Fox In The Thatch, The
R: jig
M: 6/8
K: Fmajor
f2d|:cAF GFD|~C2C FDC|FGA cAG|Add dfd|
cAF GFD|~C2C FDC|FGA cAG|AFE F2 d:|
|:cdc cAc|ded d2c|~d2d a2f|gag gde|
f2d cAG|A2 A FDC|FGA cAG|AFE F2:|

